X:29
T:Danse de dj'v\^a
O:Wallonie
Z:Bert Van Vreckem <http://flanders.blackmill.net/music/>
M:2/4
L:1/8
K:D
P:A
D|:FD FD|E3 E/F/|GE GE|F3 A|AA Bc|dc/B/ AG|F2 E2|[1 E2 zE:|[2 E2 zA||
P:B
|:FA FA|G2 zG|EG EG|F2 zF|DF DF|EC/D/ EF|G2 A2|[1 F3 A:|[2 D2 zD|]

